packages/core/src/svgs/tokens/mono/IXT.svg

<svg width="24" height="24" viewBox="0 0 24 24" fill="none" xmlns="http://www.w3.org/2000/svg">
<path d="M2 6.44446H4.77778V9.22223H2V6.44446ZM2 10.3334H4.77778V17.5556H2V10.3334ZM17.274 6.44446H22L16.3623 11.9767L22 17.5556H17.274L11.4445 11.9767L17.274 6.44446Z" fill="white"/>
<path d="M10.6149 6.44446H5.88879L11.5266 11.9767L5.88879 17.5556H10.6149L16.4444 11.9767L10.6149 6.44446Z" fill="white"/>
</svg>

<svg xmlns="http://www.w3.org/2000/svg" width="24" height="24" fill="none" viewBox="0 0 24 24">
    <path fill="#fff" d="M2 6.444h2.778v2.778H2zm0 3.89h2.778v7.222H2zm15.274-3.89H22l-5.638 5.533L22 17.556h-4.726l-5.83-5.58z"/>
    <path fill="#fff" d="M10.615 6.444H5.889l5.638 5.533-5.638 5.579h4.726l5.83-5.58z"/>
</svg>
